X:1
T:Oh Why Should the Spirit of Mortal Be Proud
T:Oh Why Should the Spirit of Mortal Be Proud
T:Charles William Everest, ca. 1865
T:Public Domain Courtesy of the Cyber Hymnal™
T:Public Domain Courtesy of the Cyber Hymnal™
C:Charles William Everest, ca. 1865
Z:Public Domain
Z:Courtesy of the Cyber Hymnal™
%%score 1 2 3
L:1/8
Q:1/8=190
M:9/8
K:Eb
V:1 treble 
V:2 treble 
V:3 bass 
V:1
 z8 z |"^Prelude" z8 z | z8 z | z8 z | z8 z | z8 z | z8 z | z8 x | z6 ||"^Verse" G2 A | %10
 B=AB e3 G2 G | GFG A2 z A2 G | FFF F>GA cB=A | B3- B2 z G2 A | B=AB e3 G2 _A | Bc_d c3 c3 | %16
 eed/c/ B3 E2 F | GEF E3- E2 c/c/ | cde d3 d2 d | eec G4 z G | AAA G3 F2 F | EDC G3 || %22
"^Reprise" G2 A | B=AB e3 G2 _A | Bc_d c2 z c2 c | eed/c/ B3 E2 F | GEF E3 ||"^Finale" z3 | z8 z | %29
 z8 z | z8 z | z6 z3 |] %32
V:2
 z6 G2 A | B=AB e3 G2 G | GFG A2 z A2 G | FFF F>GA cB=A | B3- B2 z G2 A | B=AB e3 G2 _A | %6
 Bc_d c3 c3 | e2 d/c/ B3 E2 F | BEF E3 || z3 | z B,E GEB, GEB, | %11
 z [B,EG][B,EG] z [B,DA][B,DA] z [B,DA][B,DA] | z B,D ADB, ADB, | z B,E GEB, GEB, | %14
 z B,E GEB, GEB, | z [B,E][B,E] z [CE][CE] z [CE][CE] | [CE_G]3 [E=G]3 [F,A,E]3 | %17
 [G,B,E]2 [A,B,F] [G,B,E]3- [G,B,E]2 z | z [CEG][CEG] z [=B,FG][B,FG] z [B,FG][B,FG] | %19
 z [CEG][CEG] z [CEG][CEG] z [CEG][CEG] | z [CFA][CFA] z [CEG][CEG] z [CEF][CEF] | %21
 [CE][A,CD][G,C] [G,=B,DG]3 || z3 | z B,E GEB, GEB, | z [B,E][B,E] z [CE][CE] z [CE][CE] | %25
 [CE_G]3 [E=G]3 [F,A,E]3 | [G,B,E]2 [A,B,F] [G,B,E]3 || G2 A | B=AB e3 G2 _A | Bc_d c2 z c3 | %30
 e2 d/c/ B3 E2 F | GEF E3 z3 |] %32
V:3
 z8 z | E,G,B, E,G,B, E,G,B, | E,G,B, F,B,D F,B,D | B,,D,A, B,,D,A, B,,D,A, | %4
 E,G,B, E,G,B, E,G,B, | E,G,B, E,G,B, E,G,B, | G,B,E A,CE A,CE | [=A,CE_G]3 [B,E=G]3 [C,F,A,]3 | %8
 [B,,G,]2 [B,,F,A,] [E,G,]3 || z3 | [E,,E,]6 z3 | [E,,E,]3 [F,,F,]3 [F,,F,]3 | B,,6 z3 | %13
 [E,,E,]6 z3 | [E,,E,]6 z3 | [G,,G,]3 [A,,A,]3 [A,,A,]3 | [=A,,=A,]3 [B,,B,]3 C,3 | %17
 B,,2 B,, [E,,E,]3- [E,,E,]2 z | [C,,C,]3 G,,3 G,,3 | [C,,C,]3 [C,,C,]3 [C,,C,]3 | %20
 [C,,C,]3 [C,,C,]3 [A,,A,]3 | [G,,G,][F,,F,][E,,E,] [G,,,G,,]3 || z3 | [E,,E,]6 z3 | %24
 [G,,G,]3 [A,,A,]3 [A,,A,]3 | [=A,,=A,]3 [B,,B,]3 C,3 | B,,2 B,, [E,,E,]3 || z3 | %28
 E,[G,B,][G,B,] E,[G,B,][G,B,] E,[G,B,][G,B,] | G,[B,E][B,E] A,[CE][CE] A,[CE][CE] | %30
 [=A,CE_G]3 [B,E=G]3 [C,F,A,]3 | [B,,G,]2 [B,,F,A,] [E,G,]3 z3 |] %32

